packages/astro-components-stencil/src/icons/desktop-access-disabled.svg

<svg width="24" height="24" viewBox="0 0 24 24" fill="none" xmlns="http://www.w3.org/2000/svg">
<path fill-rule="evenodd" clip-rule="evenodd" d="M0.310017 2.00002C-0.0799829 2.39002 -0.0799829 3.02002 0.310017 3.41002L1.00002 4.09002V16C1.00002 17.1 1.90002 18 3.00002 18H10V20H9.00002C8.45002 20 8.00002 20.45 8.00002 21C8.00002 21.55 8.45002 22 9.00002 22H15C15.55 22 16 21.55 16 21C16 20.45 15.55 20 15 20H14V18H14.9L20.19 23.29C20.58 23.68 21.21 23.68 21.6 23.29C21.99 22.9 21.99 22.27 21.6 21.88L1.72002 2.00002C1.33002 1.61002 0.700017 1.61002 0.310017 2.00002ZM2.99002 15V6.09002L12.9 16H3.99002C3.44002 16 2.99002 15.55 2.99002 15ZM6.55002 4.00002L4.55002 2.00002H20.99C22.09 2.00002 22.99 2.90002 22.99 4.00002V16C22.99 17.1 22.09 18 20.99 18H20.55L18.55 16H20C20.55 16 21 15.55 21 15V5.00002C21 4.45002 20.55 4.00002 20 4.00002H6.55002Z" fill="black"/>
</svg>

<svg xmlns="http://www.w3.org/2000/svg" viewBox="0 0 24 24"><g xmlns="http://www.w3.org/2000/svg" id="desktop-access-disabled" fill-rule="nonzero">
            <path d="M.31 2a.996.996 0 000 1.41l.69.68V16c0 1.1.9 2 2 2h7v2H9c-.55 0-1 .45-1 1s.45 1 1 1h6c.55 0 1-.45 1-1s-.45-1-1-1h-1v-2h.9l5.29 5.29a.996.996 0 101.41-1.41L1.72 2A.996.996 0 00.31 2zm2.68 13V6.09L12.9 16H3.99c-.55 0-1-.45-1-1zM4.55 2l2 2H20c.55 0 1 .45 1 1v10c0 .55-.45 1-1 1h-1.45l2 2h.44c1.1 0 2-.9 2-2V4c0-1.1-.9-2-2-2H4.55z"/>
        </g></svg>
